public/assets/img/icons/single-prev.svg

<svg width="40" height="40" viewBox="0 0 40 40" fill="none" xmlns="http://www.w3.org/2000/svg">
<path d="M20 40C31.0284 40 40 31.0284 40 20C40 8.97164 31.0284 0 20 0C8.97164 0 0 8.97164 0 20C0 31.0284 8.97164 40 20 40ZM13.8216 18.8216L22.155 10.4884C22.48 10.1634 22.9066 10 23.3334 10C23.76 10 24.1867 10.1634 24.5117 10.4884C25.1634 11.14 25.1634 12.1934 24.5117 12.845L17.3566 20L24.5116 27.155C25.1633 27.8066 25.1633 28.86 24.5116 29.5116C23.86 30.1633 22.8066 30.1633 22.155 29.5116L13.8216 21.1783C13.17 20.5266 13.17 19.4734 13.8216 18.8216Z" fill="#333333"/>
</svg>

<svg width="40" height="40" fill="none" xmlns="http://www.w3.org/2000/svg"><path d="M20 40c11.028 0 20-8.972 20-20S31.028 0 20 0 0 8.972 0 20s8.972 20 20 20zm-6.178-21.178 8.333-8.334a1.662 1.662 0 0 1 2.357 0 1.665 1.665 0 0 1 0 2.357L17.357 20l7.155 7.155a1.665 1.665 0 0 1 0 2.357 1.665 1.665 0 0 1-2.357 0l-8.333-8.334a1.665 1.665 0 0 1 0-2.356z" fill="#333"/></svg>
